!!!SOCIAL_FUNCTION:	initiation songs of the first and second degrees
!!!PDT:	1909
!!!OTL: No_14_First_Song_of_the_Feast.krn
!!!REG: Great_Lakes
!!!LANG: Non-Tone
!!!LING_GROUP: Algonquin
**kern
*staff1
*clefF4
*k[b-e-]
*M2/2
8c\L
8c\J
4c\
=1
2c\
2c\
=2
4B-\
4A\
6B-\
6B-\
6B-\
=3||
*M3/2
2B-\
2B-\
4G\
4F\
=4||
*M2/2
2F\
2F\
=5
2F\
4B-\
8.B-\L
16B-\Jk
=6
2B-\
2B-\
=7
4G\
4G\
6B-\
6B-\
6B-\
=8||
*M3/2
2B-\
2B-\
4G\
4F\
=9||
*M2/2
2F\
2F\
=10
2F\
6F\
6F\
6F\
=11
2F\
2F\
=12
4D\
4D\
8E-\L
8E-\J
4D\
=13||
*M3/2
2C/
2C/
4C/
4BB-/
=14||
*M2/2
2BB-/
2BB-/
=15
2BB-/
6C/
6C/
6C/
=16
2C/
2C/
=17
4C/
4BB-/
6C/
6C/
6C/
=18||
*M3/2
2BB-/
2BB-/
4GG/
4FF/
=19
=
*M2/2
2FF/
2FF/
=20
2FF/
6c\
6c\
6c\
=21
2c\
2c\
=22
4B-\
4A\
6B-\
6B-\
6B-\
=23||
*M3/2
2B-\
(4.B-\
8G\)
6F\
6F\
6F\
=24||
*M2/2
2F\
2F\
=25
1F
==
*-
